;FLAVOR:UltiGCode
;TIME:6862
;MATERIAL:23716
;MATERIAL2:0
;NOZZLE_DIAMETER:0.4
;MINX:85.9
;MINY:54.4
;MINZ:0.27
;MAXX:137.1
;MAXY:168.6
;MAXZ:15.07
;Generated with Cura_SteamEngine 5.4.0
M82 ;absolute extrusion mode
G0 F3000 Y50 ;avoid prime blob
G92 E0
G92 E0
G10
;LAYER_COUNT:75
;LAYER:0
M107
G0 F9000 X86.554 Y55.682 Z0.27
;TYPE:SKIRT
G11
G1 F2400 X87.28 Y54.983 E0.10884
G1 X88.188 Y54.544 E0.21777
G1 X89.127 Y54.401 E0.32035
G1 X133.83 Y54.4 E5.14827
G1 X134.44 Y54.457 E5.21444
G1 X134.93 Y54.583 E5.26908
G1 X135.82 Y55.057 E5.37798
G1 X136.198 Y55.392 E5.43253
G1 X136.773 Y56.22 E5.5414
G1 X136.956 Y56.691 E5.59598
G1 X137.099 Y57.351 E5.66891
G1 X137.1 Y165.333 E17.33097
G1 X137.045 Y165.934 E17.39615
G1 X136.92 Y166.424 E17.45076
G1 X136.448 Y167.315 E17.55966
G1 X135.723 Y168.015 E17.6685
G1 X134.816 Y168.454 E17.77732
G1 X134.153 Y168.599 E17.85062
G1 X89.165 Y168.6 E22.70932
G1 X88.564 Y168.544 E22.77451
G1 X88.074 Y168.419 E22.82913
G1 X87.184 Y167.947 E22.93793
G1 X86.805 Y167.612 E22.99256
G1 X86.229 Y166.785 E23.1014
G1 X86.045 Y166.314 E23.15602
G1 X85.901 Y165.367 E23.25947
G1 X85.9 Y57.663 E34.8915
G1 X85.956 Y57.062 E34.95669
G1 X86.283 Y56.109 E35.0655
G1 X86.554 Y55.682 E35.12012
G10
;MESH:????????????.STL(1)
G0 F9000 X88.404 Y58.014
G0 X92.867 Y65.365
;TYPE:WALL-OUTER
G11
G1 F2400 X92.122 Y65.36 E35.20863
G1 X91.535 Y65.134 E35.28336
G1 X91.068 Y64.747 E35.35541
G1 X90.843 Y64.427 E35.40188
G1 X90.632 Y63.853 E35.47453
G1 X90.641 Y63.121 E35.5615
G1 X90.88 Y62.511 E35.63933
G1 X91.254 Y62.067 E35.7083
G1 X91.573 Y61.843 E35.75461
G1 X92.112 Y61.642 E35.82295
G1 X92.878 Y61.641 E35.91395
G1 X93.465 Y61.866 E35.98863
G1 X93.932 Y62.253 E36.06069
G1 X94.146 Y62.548 E36.10398
G1 X94.361 Y63.121 E36.17669
G1 X94.369 Y63.844 E36.26259
G1 X94.155 Y64.429 E36.33659
G1 X93.709 Y64.967 E36.41961
G1 X93.427 Y65.157 E36.46001
G1 X92.867 Y65.365 E36.53098
G0 F9000 X92.667 Y65.364
G10
G0 X92.67 Y65.672
G0 X91.213 Y65.492
G0 X90.035 Y63.844
G0 X89.782 Y64.7
G0 X89.781 Y82.301
G0 X89.858 Y83.296
G0 X91.414 Y81.389
G0 X92.894 Y81.401
G0 X94.132 Y82.113
G0 X94.608 Y83.105
G0 X94.35 Y84.586
G0 X93.797 Y85.196
G0 X92.956 Y85.65
G0 X92.853 Y85.368
G11
G1 F2400 X92.122 Y85.36 E36.61782
G1 X91.535 Y85.134 E36.69255
G1 X91.068 Y84.747 E36.7646
G1 X90.843 Y84.427 E36.81108
G1 X90.632 Y83.853 E36.88373
G1 X90.641 Y83.121 E36.9707
G1 X90.88 Y82.511 E37.04853
G1 X91.254 Y82.067 E37.11749
G1 X91.573 Y81.843 E37.1638
G1 X92.112 Y81.642 E37.23214
G1 X92.858 Y81.635 E37.32077
G1 X93.436 Y81.846 E37.39387
G1 X93.932 Y82.254 E37.47017
G1 X94.157 Y82.573 E37.51654
G1 X94.358 Y83.112 E37.58488
G1 X94.369 Y83.844 E37.67186
G1 X94.155 Y84.429 E37.74586
G1 X93.709 Y84.967 E37.82888
G1 X93.447 Y85.149 E37.86678
G1 X92.853 Y85.368 E37.94199
G0 F9000 X92.653 Y85.366
G10
G0 X92.656 Y85.672
G0 X94.001 Y85.397
G0 X98.2 Y85.397
G0 X104.033 Y87.798
G11
G1 F2400 X98.903 Y87.8 E38.55143
G1 X98.706 Y87.549 E38.58934
G1 X98.7 Y62.409 E41.57597
G1 X98.767 Y62.299 E41.59127
G1 X98.967 Y62.202 E41.61768
G1 X104.102 Y62.2 E42.22772
G1 X104.294 Y62.452 E42.26535
G1 X104.3 Y87.566 E45.2489
G1 X104.229 Y87.704 E45.26733
G1 X104.033 Y87.798 E45.29316
G0 F9000 X103.833 Y87.798
G10
G0 X103.833 Y88.1
G0 X104.737 Y87.841
G0 X108.202 Y87.559
G0 X108.898 Y87.8
G11
G1 F2400 X108.788 Y87.718 E45.30946
G1 X108.7 Y87.518 E45.33542
G1 X108.705 Y62.404 E48.31896
G1 X108.771 Y62.296 E48.334
G1 X108.967 Y62.202 E48.35982
G1 X114.102 Y62.2 E48.96986
G1 X114.294 Y62.452 E49.00749
G1 X114.3 Y87.566 E51.99104
G1 X114.229 Y87.704 E52.00947
G1 X114.033 Y87.798 E52.0353
G1 X108.898 Y87.8 E52.64534
G0 F9000 X108.788 Y87.718
G0 X108.763 Y87.661
G10
G0 X108.489 Y87.795
G0 X114.102 Y88.038
G0 X114.799 Y87.6
G0 X118.202 Y87.559
G0 X118.898 Y87.8
G11
G1 F2400 X118.788 Y87.718 E52.66164
G1 X118.7 Y87.518 E52.68759
G1 X118.705 Y62.404 E55.67114
G1 X118.771 Y62.296 E55.68617
G1 X118.967 Y62.202 E55.712
G1 X124.105 Y62.2 E56.32239
G1 X124.301 Y62.46 E56.36107
G1 X124.299 Y87.624 E59.35056
G1 X124.033 Y87.798 E59.38832
G1 X118.898 Y87.8 E59.99836
G0 F9000 X118.788 Y87.718
G0 X118.763 Y87.661
G10
G0 X118.489 Y87.795
G0 X124.102 Y88.038
G0 X124.819 Y85.646
G0 X128.744 Y85.154
G0 X130.156 Y85.368
G11
G1 F2400 X129.573 Y85.158 E60.07197
G1 X129.068 Y84.747 E60.14933
G1 X128.843 Y84.427 E60.1958
G1 X128.632 Y83.853 E60.26845
G1 X128.641 Y83.121 E60.35542
G1 X128.881 Y82.511 E60.43329
G1 X129.293 Y82.032 E60.50835
G1 X129.573 Y81.843 E60.54849
G1 X130.133 Y81.635 E60.61946
G1 X130.878 Y81.641 E60.70796
G1 X131.465 Y81.867 E60.78269
G1 X131.932 Y82.254 E60.85474
G1 X132.157 Y82.573 E60.90112
G1 X132.358 Y83.112 E60.96946
G1 X132.369 Y83.844 E61.05643
G1 X132.121 Y84.488 E61.13841
G1 X131.709 Y84.967 E61.21347
G1 X131.427 Y85.157 E61.25387
G1 X130.819 Y85.37 E61.3304
G1 X130.156 Y85.368 E61.40917
G0 F9000 X129.968 Y85.301
G0 X129.867 Y85.578
G0 X130.949 Y85.853
G0 X132.48 Y84.81
G0 X132.968 Y83.834
G0 X133.43 Y91.93
G0 X133.7 Y92.2
G1 F2400 X133.7 Y57.8 E65.49589
G1 X89.3 Y57.8 E70.77061
G1 X89.3 Y92.2 E74.85733
G1 X133.7 Y92.2 E80.13205
G0 F9000 X133.7 Y92
G10
G0 X133.43 Y91.93
G0 X133.219 Y64.701
G0 X133.133 Y63.865
G0 X131.758 Y65.52
G0 X130.041 Y65.642
G0 X130.142 Y65.365
G11
G1 F2400 X129.564 Y65.154 E80.20515
G1 X129.068 Y64.747 E80.28137
G1 X128.843 Y64.427 E80.32784
G1 X128.632 Y63.853 E80.4005
G1 X128.637 Y63.133 E80.48603
G1 X128.852 Y62.555 E80.5593
G1 X129.255 Y62.067 E80.63449
G1 X129.573 Y61.843 E80.6807
G1 X130.112 Y61.642 E80.74904
G1 X130.878 Y61.641 E80.84004
G1 X131.465 Y61.867 E80.91476
G1 X131.932 Y62.254 E80.98682
G1 X132.157 Y62.573 E81.03319
G1 X132.358 Y63.112 E81.10153
G1 X132.369 Y63.844 E81.1885
G1 X132.121 Y64.488 E81.27049
G1 X131.709 Y64.967 E81.34555
G1 X131.427 Y65.157 E81.38594
G1 X130.819 Y65.37 E81.46248
G1 X130.142 Y65.365 E81.54291
G0 F9000 X129.955 Y65.297
G0 X130.045 Y65.753
;TYPE:WALL-INNER
G1 F2400 X129.368 Y65.503 E81.61695
G1 X128.704 Y64.937 E81.70647
G1 X128.468 Y64.567 E81.7515
G1 X128.238 Y63.922 E81.82176
G1 X128.253 Y63.019 E81.91442
G1 X128.545 Y62.291 E81.99489
G1 X129.063 Y61.704 E82.07522
G1 X129.433 Y61.468 E82.12024
G1 X130.078 Y61.239 E82.19047
G1 X130.808 Y61.229 E82.26537
G1 X131.637 Y61.486 E82.35442
G1 X132.295 Y62.063 E82.44421
G1 X132.532 Y62.433 E82.48929
G1 F2204.4 X132.802 Y63.181 E82.57741
G1 F2021.2 X132.798 Y63.919 E82.66582
G1 F2187.6 X132.427 Y64.746 E82.76695
G1 F2400 X132.053 Y65.19 E82.82651
G1 X131.703 Y65.46 E82.87187
G1 X130.93 Y65.772 E82.95739
G1 X130.045 Y65.753 E83.04821
G10
G0 F9000 X131.758 Y65.52
G0 X132.968 Y63.834
G0 X133.219 Y64.701
G0 X133.219 Y82.795
G0 X131.785 Y81.508
G0 X130.075 Y81.17
G0 X129.113 Y81.868
G0 X128.384 Y83.15
G0 X128.641 Y84.566
G0 X130.086 Y85.762
G11
G1 F2400 X129.393 Y85.516 E83.12366
G1 X128.704 Y84.937 E83.216
G1 X128.468 Y84.567 E83.26103
G1 X128.238 Y83.922 E83.33129
G1 X128.266 Y82.981 E83.42788
G1 X128.575 Y82.253 E83.50902
G1 X129.063 Y81.704 E83.58438
G1 X129.433 Y81.468 E83.62941
G1 X130.037 Y81.247 E83.6954
G1 X130.808 Y81.229 E83.77452
G1 X131.637 Y81.486 E83.86357
G1 X132.295 Y82.063 E83.95336
G1 X132.532 Y82.433 E83.99844
G1 F2204.4 X132.802 Y83.181 E84.08656
G1 F2021.2 X132.798 Y83.919 E84.17497
G1 F2187.6 X132.427 Y84.746 E84.2761
G1 F2400 X132.053 Y85.19 E84.33566
G1 X131.703 Y85.46 E84.38102
G1 X131.028 Y85.733 E84.45572
G1 X130.086 Y85.762 E84.55242
G0 F9000 X131.758 Y85.52
G0 X132.968 Y83.834
G0 X133.3 Y91.8
G1 F2400 X133.3 Y84.706 E85.28026
G1 F2187.6 X133.265 Y83.959 E85.3637
G1 F2021.2 X133.268 Y83.181 E85.45689
G1 F2182 X133.3 Y82.783 E85.50155
G1 F2380.3 X133.3 Y64.706 E87.37016
G1 F2187.6 X133.265 Y63.959 E87.4536
G1 F2021.2 X133.268 Y63.181 E87.54679
G1 F2182 X133.3 Y62.783 E87.59145
G1 F2380.3 X133.3 Y58.2 E88.06519
G1 F2400 X89.7 Y58.2 E92.53855
G1 X89.7 Y62.292 E92.95839
G1 F2204.4 X89.733 Y63.192 E93.05818
G1 F2021.2 X89.735 Y63.968 E93.15114
G1 F2187.6 X89.701 Y64.705 E93.23346
G1 F2400 X89.7 Y82.292 E95.03788
G1 F2204.4 X89.733 Y83.192 E95.13768
G1 F2021.2 X89.735 Y83.968 E95.23063
G1 F2187.6 X89.701 Y84.705 E95.31295
G1 F2400 X89.7 Y91.8 E96.0409
G1 X133.3 Y91.8 E100.51426
G10
G0 F9000 X118.796 Y91.68
G0 X118.958 Y88.301
G0 X118.795 Y88.2
G11
G1 F2400 X118.464 Y87.954 E100.55657
G1 X118.302 Y87.557 E100.60056
G1 X118.3 Y62.346 E103.18721
G1 X118.514 Y61.99 E103.22983
G1 X118.922 Y61.8 E103.276
G1 X124.212 Y61.8 E103.81876
G1 X124.551 Y62.068 E103.8631
G1 X124.699 Y62.461 E103.90618
G1 X124.695 Y87.631 E106.48862
G1 X124.63 Y87.833 E106.5104
G1 X124.365 Y88.089 E106.5482
G1 X124.078 Y88.2 E106.57977
G1 X118.795 Y88.2 E107.12181
G10
G0 F9000 X118.796 Y88.193
G0 X118.202 Y87.559
G0 X114.737 Y87.841
G0 X114.078 Y88.2
G11
G1 F2400 X108.795 Y88.2 E107.66384
G1 X108.464 Y87.954 E107.70616
G1 X108.302 Y87.557 E107.75015
G1 X108.3 Y62.346 E110.3368
G1 X108.514 Y61.99 E110.37941
G1 X108.922 Y61.8 E110.42559
G1 X114.205 Y61.8 E110.96763
G1 X114.536 Y62.046 E111.00994
G1 X114.7 Y62.391 E111.04913
G1 X114.699 Y87.596 E113.63517
G1 X114.645 Y87.803 E113.65712
G1 X114.486 Y88.01 E113.6839
G1 X114.078 Y88.2 E113.73007
G10
G0 F9000 X108.679 Y88.033
G0 X104.799 Y87.557
G0 X104.078 Y88.2
G11
G1 F2400 X98.809 Y88.2 E114.27067
G1 X98.489 Y87.985 E114.31023
G1 X98.303 Y87.614 E114.35281
G1 X98.3 Y62.42 E116.93771
G1 X98.35 Y62.208 E116.96006
G1 X98.503 Y61.999 E116.98663
G1 X98.922 Y61.8 E117.03423
G1 X104.205 Y61.8 E117.57626
G1 X104.536 Y62.046 E117.61857
G1 X104.7 Y62.391 E117.65777
G1 X104.699 Y87.596 E120.2438
G1 X104.645 Y87.803 E120.26575
G1 X104.486 Y88.01 E120.29253
G1 X104.078 Y88.2 E120.33871
G10
G0 F9000 X98.679 Y88.033
G0 X98.2 Y85.762
G0 X94.001 Y85.397
G0 X92.922 Y85.762
G11
G1 F2400 X91.985 Y85.736 E120.43488
G1 X91.28 Y85.442 E120.51325
G1 X90.813 Y85.055 E120.57548
G1 X90.539 Y84.702 E120.62133
G1 F2187.6 X90.203 Y83.928 E120.71547
G1 F1955.4 X90.223 Y82.965 E120.83431
G1 F2133 X90.574 Y82.253 E120.92492
G1 F2400 X90.948 Y81.809 E120.98448
G1 X91.298 Y81.539 E121.02984
G1 X92.07 Y81.228 E121.11523
G1 X92.955 Y81.247 E121.20605
G1 X93.632 Y81.497 E121.2801
G1 X94.296 Y82.063 E121.36961
G1 X94.532 Y82.433 E121.41464
G1 X94.77 Y83.18 E121.49508
G1 X94.763 Y83.913 E121.57029
G1 X94.426 Y84.746 E121.66248
G1 X93.947 Y85.288 E121.7367
G1 X93.663 Y85.486 E121.77222
G1 X92.922 Y85.762 E121.85335
G10
G0 F9000 X93.887 Y85.132
G0 X94.616 Y83.85
G0 X94.359 Y82.434
G0 X92.93 Y81.17
G0 X91.025 Y81.632
G0 X90.064 Y83.305
G0 X89.781 Y82.301
G0 X89.782 Y64.7
G0 X89.868 Y63.873
G0 X91.213 Y65.492
G0 X92.963 Y65.753
G11
G1 F2400 X92.075 Y65.774 E121.94448
G1 X91.28 Y65.442 E122.03287
G1 X90.813 Y65.055 E122.0951
G1 X90.539 Y64.702 E122.14095
G1 F2187.6 X90.203 Y63.928 E122.2351
G1 F1955.4 X90.223 Y62.965 E122.35394
G1 F2133 X90.574 Y62.253 E122.44454
G1 F2400 X90.948 Y61.809 E122.50411
G1 X91.298 Y61.539 E122.54946
G1 X92.078 Y61.239 E122.6352
G1 X93.015 Y61.265 E122.73138
G1 X93.721 Y61.558 E122.8098
G1 X94.296 Y62.063 E122.88832
G1 X94.498 Y62.359 E122.92509
G1 X94.742 Y63 E122.99546
G1 X94.763 Y63.913 E123.08915
G1 X94.426 Y64.746 E123.18135
G1 X93.939 Y65.294 E123.25657
G1 X93.567 Y65.532 E123.30188
G1 X92.963 Y65.753 E123.36787
G0 F9000 X92.15 Y65.616
G0 X90.868 Y64.887
G0 X89.962 Y63.372
G0 X89.968 Y63.195
;TYPE:SKIN
G1 F2865.9 X89.993 Y62.871 E123.39337
G10
G0 F9000 X89.81 Y62.867
G0 X89.81 Y82.867
G0 X89.993 Y82.871
G11
G1 F2865.9 X89.968 Y83.195 E123.41888
G10
G0 F9000 X89.962 Y83.372
G0 X90.868 Y84.887
G0 X92.15 Y85.616
G0 X93.566 Y85.359
G0 X94.679 Y84.37
G0 X98.2 Y84.37
G0 X104.117 Y88.518
G11
G1 F2400 X98.785 Y88.52 E123.91124
G1 X98.244 Y88.188 E123.96985
G1 X97.984 Y87.632 E124.02653
G1 X97.98 Y62.262 E126.36919
G1 X98.293 Y61.762 E126.42366
G1 X98.879 Y61.482 E126.48363
G1 X104.229 Y61.48 E126.97765
G1 X104.807 Y61.879 E127.04251
G1 X105.015 Y62.323 E127.08778
G1 X105.017 Y87.63 E129.42463
G1 X104.931 Y87.942 E129.45451
G1 X104.649 Y88.279 E129.49509
G1 X104.117 Y88.518 E129.54894
G10
G0 F9000 X104.062 Y88.223
G0 X108.202 Y87.559
G0 X114.117 Y88.518
G11
G1 F2400 X108.771 Y88.52 E130.04259
G1 X108.205 Y88.138 E130.10565
G1 X107.983 Y87.583 E130.16085
G1 X107.984 Y62.283 E132.49705
G1 X108.165 Y61.895 E132.53658
G1 X108.562 Y61.593 E132.58264
G1 X108.878 Y61.482 E132.61357
G1 X114.229 Y61.48 E133.10768
G1 X114.807 Y61.879 E133.17254
G1 X115.015 Y62.323 E133.21781
G1 X115.017 Y87.63 E135.55466
G1 X114.931 Y87.942 E135.58454
G1 X114.649 Y88.279 E135.62512
G1 X114.117 Y88.518 E135.67897
G10
G0 F9000 X114.062 Y88.223
G0 X118.202 Y87.559
G0 X118.771 Y88.52
G11
G1 F2400 X118.205 Y88.138 E135.74203
G1 X117.983 Y87.583 E135.79722
G1 X117.984 Y62.283 E138.13343
G1 X118.165 Y61.895 E138.17296
G1 X118.562 Y61.593 E138.21902
G1 X118.878 Y61.482 E138.24995
G1 X124.075 Y61.482 E138.72984
G1 X124.419 Y61.568 E138.76258
G1 X124.82 Y61.899 E138.8106
G1 X125.02 Y62.461 E138.86568
G1 X125.021 Y87.703 E141.19652
G1 X124.753 Y88.197 E141.24842
G1 X124.125 Y88.518 E141.31355
G1 X118.771 Y88.52 E141.80794
G10
G0 F9000 X118.825 Y88.198
G0 X124.085 Y88.301
G0 X124.085 Y91.68
G0 X132.98 Y91.48
G11
G1 F2400 X132.98 Y84.712 E142.43289
G1 X132.949 Y84.393 E142.46249
G1 X132.692 Y84.921 E142.51671
G1 X132.303 Y85.392 E142.57312
G1 X131.88 Y85.729 E142.62306
G1 X130.997 Y86.093 E142.71125
G1 X130.026 Y86.078 E142.80093
G1 X129.254 Y85.803 E142.8766
G1 X128.62 Y85.312 E142.95065
G1 X128.259 Y84.85 E143.00479
G1 X127.923 Y83.974 E143.09142
G1 X127.908 Y83.174 E143.16531
G1 X128.173 Y82.303 E143.24938
G1 X128.73 Y81.579 E143.33373
G1 X129.148 Y81.261 E143.38222
G1 X129.957 Y80.938 E143.46266
G1 X130.98 Y80.903 E143.55718
G1 X131.915 Y81.306 E143.6512
G1 X132.556 Y81.873 E143.73022
G1 X132.816 Y82.291 E143.77568
G1 X132.98 Y82.709 E143.81714
G1 X132.979 Y64.705 E145.47963
G1 X132.949 Y64.393 E145.50857
G1 X132.692 Y64.921 E145.56279
G1 X132.303 Y65.392 E145.6192
G1 X131.852 Y65.741 E145.67186
G1 X131.157 Y66.026 E145.74122
G1 X130.804 Y66.09 E145.77435
G1 X129.961 Y66.062 E145.85224
G1 X129.209 Y65.784 E145.92627
G1 X128.591 Y65.283 E145.99973
G1 X128.26 Y64.85 E146.05006
G1 X127.923 Y63.974 E146.13673
G1 X127.906 Y63.032 E146.22373
G1 X128.204 Y62.241 E146.30178
G1 X128.762 Y61.527 E146.38546
G1 X129.33 Y61.164 E146.4477
G1 X130.021 Y60.924 E146.51525
G1 X130.988 Y60.905 E146.60456
G1 X131.914 Y61.305 E146.6977
G1 X132.556 Y61.873 E146.77685
G1 X132.816 Y62.291 E146.82231
G1 X132.98 Y62.709 E146.86377
G1 X132.98 Y58.52 E147.25058
G1 X90.021 Y58.521 E151.21742
G1 F2502.9 X90.022 Y62.78 E151.59595
G1 X90.31 Y62.073 E151.6638
G1 F2400 X90.869 Y61.445 E151.74143
G1 X91.33 Y61.164 E151.79128
G1 X92.021 Y60.924 E151.85883
G1 X92.99 Y60.905 E151.94833
G1 X93.912 Y61.301 E152.04098
G1 X94.419 Y61.727 E152.10213
G1 X94.775 Y62.198 E152.15665
G1 X95.093 Y63.019 E152.23795
G1 X95.078 Y63.971 E152.32587
G1 X94.807 Y64.719 E152.39933
G1 X94.308 Y65.381 E152.47588
G1 X93.879 Y65.729 E152.52689
G1 X93.043 Y66.062 E152.60999
G1 X92.017 Y66.097 E152.70478
G1 X91.086 Y65.7 E152.79824
G1 X90.618 Y65.311 E152.85443
G1 X90.282 Y64.893 E152.90396
G1 X90.051 Y64.417 E152.95281
G1 X90.023 Y64.718 E152.98073
G1 F2433.4 X90.023 Y70.739 E153.52976
G1 F2502.9 X90.023 Y76.76 E154.06489
G1 F2576 X90.022 Y82.781 E154.58612
G1 F2502.9 X90.31 Y82.073 E154.65405
G1 F2400 X90.851 Y81.466 E154.72913
G1 X91.339 Y81.161 E154.78227
G1 X92.16 Y80.909 E154.86157
G1 X93.039 Y80.938 E154.94278
G1 X93.791 Y81.217 E155.01685
G1 X94.552 Y81.87 E155.10944
G1 X94.839 Y82.339 E155.16021
G1 X95.091 Y83.159 E155.23943
G1 X95.078 Y83.968 E155.31414
G1 X94.685 Y84.937 E155.4107
G1 X94.114 Y85.563 E155.48894
G1 X93.767 Y85.793 E155.52738
G1 X92.976 Y86.077 E155.60499
G1 X92.01 Y86.095 E155.6942
G1 X91.081 Y85.696 E155.78756
G1 X90.589 Y85.281 E155.847
G1 X90.282 Y84.893 E155.89268
G1 X90.051 Y84.417 E155.94154
G1 X90.023 Y84.718 E155.96945
G1 X90.02 Y91.48 E156.59386
G1 X132.98 Y91.48 E160.56078
G10
G0 F9000 X133.28 Y91.48
G0 X133.28 Y59.239
G0 X132.779 Y59.239
G11
G1 F2400 X132.259 Y58.72 E160.62862
G0 F9000 X131.693 Y58.72
G1 F2400 X132.779 Y59.805 E160.77038
G0 F9000 X132.779 Y60.371
G1 F2400 X131.128 Y58.72 E160.98598
