;FLAVOR:UltiGCode
;TIME:11736
;MATERIAL:47483
;MATERIAL2:0
;NOZZLE_DIAMETER:0.4
;MINX:59.9
;MINY:36.9
;MINZ:0.27
;MAXX:163.1
;MAXY:186.1
;MAXZ:26.07
;Generated with Cura_SteamEngine 5.4.0
M82 ;absolute extrusion mode
G0 F3000 Y50 ;avoid prime blob
G92 E0
G92 E0
G10
;LAYER_COUNT:130
;LAYER:0
M107
G0 F9000 X60.915 Y38.939 Z0.27
;TYPE:SKIRT
G11
G1 F2400 X61.44 Y38.397 E0.08149
G1 X62.345 Y37.665 E0.2072
G1 X62.903 Y37.389 E0.27444
G1 X64.258 Y36.926 E0.42908
G1 X65.68 Y36.9 E0.58269
G1 X158.152 Y36.9 E10.56966
G1 X158.957 Y37.006 E10.65735
G1 X159.909 Y37.286 E10.76452
G1 X161.061 Y37.915 E10.90628
G1 X161.603 Y38.44 E10.98777
G1 X162.335 Y39.345 E11.11348
G1 X162.611 Y39.903 E11.18071
G1 X163.074 Y41.258 E11.33536
G1 X163.1 Y42.658 E11.48659
G1 X163.1 Y100.182 E17.69918
G1 X163.023 Y100.992 E17.78705
G1 X162.499 Y102.593 E17.96899
G1 X161.714 Y105.24 E18.26717
G1 X161.016 Y107.865 E18.56052
G1 X160.385 Y110.537 E18.85704
G1 X159.831 Y113.226 E19.15355
G1 X159.358 Y115.898 E19.44661
G1 X158.956 Y118.619 E19.74367
G1 X158.631 Y121.352 E20.04091
G1 X158.386 Y124.057 E20.33425
G1 X158.214 Y126.811 E20.63226
G1 X158.123 Y129.525 E20.92553
G1 X158.104 Y131.451 E21.13355
G1 X158.1 Y181.114 E26.49716
G1 X158.015 Y181.842 E26.57631
G1 X157.771 Y182.752 E26.67807
G1 X157.25 Y183.835 E26.80786
G1 X156.406 Y184.757 E26.94286
G1 X155.838 Y185.215 E27.02166
G1 X155.146 Y185.606 E27.1075
G1 X153.939 Y186.028 E27.24559
G1 X153.146 Y186.1 E27.33159
G1 X124.843 Y186.1 E30.38831
G1 X124.234 Y186.042 E30.45438
G1 X123.731 Y185.911 E30.51052
G1 X122.563 Y185.462 E30.64566
G1 X122.055 Y185.122 E30.71168
G1 X121.182 Y184.357 E30.83704
G1 X120.822 Y183.865 E30.90289
G1 X120.258 Y182.839 E31.02933
G1 X119.971 Y181.883 E31.13713
G1 X119.758 Y180.298 E31.30985
G1 X119.268 Y177.072 E31.66225
G1 X118.772 Y174.367 E31.95927
G1 X118.21 Y171.727 E32.25077
G1 X117.559 Y169.039 E32.54947
G1 X116.837 Y166.393 E32.84569
G1 X116.048 Y163.794 E33.13903
G1 X115.173 Y161.176 E33.43715
G1 X114.229 Y158.597 E33.73375
G1 X113.231 Y156.096 E34.02457
G1 X112.132 Y153.55 E34.32406
G1 X110.974 Y151.064 E34.62025
G1 X109.76 Y148.64 E34.91304
G1 X108.456 Y146.209 E35.21097
G1 X107.094 Y143.834 E35.50666
G1 X105.674 Y141.514 E35.80042
G1 X104.169 Y139.203 E36.09827
G1 X102.604 Y136.945 E36.39498
G1 X101.001 Y134.764 E36.68731
G1 X99.309 Y132.592 E36.98466
G1 X97.56 Y130.476 E37.28115
G1 X95.769 Y128.429 E37.5749
G1 X93.901 Y126.411 E37.87189
G1 X92.005 Y124.476 E38.16446
G1 X89.999 Y122.543 E38.46533
G1 X88.006 Y120.727 E38.75653
G1 X85.901 Y118.916 E39.05642
G1 X83.812 Y117.217 E39.34723
G1 X81.611 Y115.531 E39.64667
G1 X79.402 Y113.934 E39.94106
G1 X77.133 Y112.39 E40.23746
G1 X74.842 Y110.925 E40.53115
G1 X72.469 Y109.499 E40.83015
G1 X70.098 Y108.165 E41.12397
G1 X67.656 Y106.88 E41.42199
G1 X65.244 Y105.697 E41.71213
G1 X62.444 Y104.416 E42.04467
G1 X61.29 Y103.504 E42.20353
G1 X60.822 Y102.865 E42.28907
G1 X60.258 Y101.839 E42.41551
G1 X59.923 Y100.738 E42.53981
G1 X59.9 Y99.407 E42.68357
G1 X59.9 Y41.848 E48.89995
G1 X60.006 Y41.043 E48.98764
G1 X60.286 Y40.091 E49.09481
G1 X60.915 Y38.939 E49.23656
G10
;MESH:???????????????v2.STL
G0 F9000 X70.799 Y46.906
G0 X71.806 Y46.162
G0 X91.571 Y46.167
G0 X91.938 Y46.906
G0 X91.928 Y61.172
G0 X93.321 Y61.167
G0 X93.688 Y61.906
G0 X93.683 Y69.071
G0 X92.792 Y69.5
G0 X92.792 Y68.8
;TYPE:WALL-OUTER
G11
G1 F2400 X70.141 Y68.799 E51.9275
G1 X69.952 Y68.533 E51.96627
G1 X69.956 Y62 E52.74239
G1 X70.197 Y61.8 E52.77959
G1 X71.7 Y61.8 E52.95815
G1 X71.702 Y47.015 E54.71461
G1 X71.774 Y46.893 E54.73144
G1 X71.967 Y46.802 E54.75678
G1 X91.1 Y46.806 E57.02979
G1 X91.21 Y46.879 E57.04547
G1 X91.299 Y47.075 E57.07104
G1 X91.3 Y61.8 E58.82037
G1 X92.853 Y61.8 E59.00487
G1 X92.954 Y61.871 E59.01954
G1 X93.05 Y62.085 E59.0474
G1 X93.047 Y68.59 E59.82019
G1 X92.986 Y68.698 E59.83493
G1 X92.792 Y68.8 E59.86097
G0 F9000 X92.592 Y68.8
G10
G0 X92.592 Y69.5
G0 X82.155 Y69.7
G0 X81.575 Y75.558
G0 X83.587 Y76.364
G0 X84.706 Y77.298
G0 X85.436 Y78.556
G0 X85.693 Y79.989
G0 X85.443 Y81.424
G0 X84.706 Y82.701
G0 X83.605 Y83.626
G0 X82.155 Y84.196
G0 X82.095 Y83.501
G11
G1 F2400 X81.488 Y83.55 E59.93331
G1 X80.888 Y83.499 E60.00485
G1 X80.27 Y83.331 E60.08093
G1 X79.719 Y83.073 E60.15321
G1 X79.217 Y82.721 E60.22605
G1 X78.779 Y82.283 E60.29964
G1 X78.427 Y81.781 E60.37248
G1 X78.169 Y81.23 E60.44476
G1 X78.001 Y80.612 E60.52084
G1 X77.95 Y79.988 E60.59522
G1 X78.001 Y79.388 E60.66675
G1 X78.16 Y78.792 E60.74004
G1 X78.419 Y78.235 E60.81301
G1 X78.791 Y77.704 E60.89003
G1 X79.204 Y77.291 E60.95942
G1 X79.735 Y76.919 E61.03644
G1 X80.303 Y76.657 E61.11076
G1 X80.888 Y76.501 E61.18268
G1 X81.512 Y76.45 E61.25706
G1 X82.129 Y76.505 E61.33065
G1 X82.73 Y76.669 E61.40466
G1 X83.265 Y76.919 E61.47481
G1 X83.796 Y77.291 E61.55184
G1 X84.209 Y77.704 E61.62122
G1 X84.581 Y78.235 E61.69825
G1 X84.838 Y78.787 E61.77058
G1 X84.999 Y79.389 E61.84462
G1 X85.05 Y80.012 E61.91888
G1 X84.997 Y80.622 E61.99162
G1 X84.831 Y81.23 E62.06649
G1 X84.576 Y81.775 E62.13797
G1 X84.225 Y82.278 E62.21084
G1 X83.783 Y82.722 E62.28527
G1 X83.281 Y83.073 E62.35804
G1 X82.697 Y83.343 E62.43447
G1 X82.095 Y83.501 E62.50841
G0 F9000 X81.896 Y83.517
G10
G0 X81.957 Y84.214
G0 X82.944 Y83.936
G0 X83.774 Y83.507
G0 X85.336 Y82.258
G0 X129.58 Y69.51
G0 X130.173 Y68.799
G11
G1 F2400 X130.043 Y68.726 E62.52613
G1 X129.95 Y68.543 E62.55051
G1 X129.952 Y61.954 E63.33329
G1 X130.195 Y61.8 E63.36746
G1 X131.7 Y61.8 E63.54626
G1 X131.705 Y47.001 E65.30438
G1 X131.777 Y46.891 E65.32
G1 X131.967 Y46.802 E65.34492
G1 X151.098 Y46.805 E67.61769
G1 X151.207 Y46.875 E67.63307
G1 X151.298 Y47.071 E67.65875
G1 X151.3 Y61.8 E69.40855
G1 X152.859 Y61.8 E69.59376
G1 X153.045 Y62.056 E69.63135
G1 X153.048 Y68.585 E70.407
G1 X152.971 Y68.71 E70.42444
G1 X152.775 Y68.799 E70.45001
G1 X130.173 Y68.799 E73.13513
G0 F9000 X130.043 Y68.726
G0 X130.02 Y68.681
G10
G0 X129.388 Y68.989
G0 X140.845 Y69.7
G0 X141.333 Y75.545
G0 X140.833 Y76.268
G0 X139.596 Y76.722
G0 X138.601 Y77.557
G0 X137.934 Y78.713
G0 X137.708 Y80.01
G0 X137.941 Y81.305
G0 X138.602 Y82.443
G0 X140.845 Y84.196
G0 X140.904 Y83.501
G11
G1 F2400 X140.303 Y83.343 E73.20896
G1 X139.718 Y83.072 E73.28555
G1 X139.213 Y82.717 E73.35888
G1 X138.783 Y82.288 E73.43104
G1 X138.425 Y81.776 E73.50526
G1 X138.159 Y81.205 E73.5801
G1 X138.001 Y80.612 E73.653
G1 X137.95 Y79.988 E73.72738
G1 X138.001 Y79.39 E73.79868
G1 X138.162 Y78.787 E73.87283
G1 X138.419 Y78.235 E73.94516
G1 X138.791 Y77.704 E74.02219
G1 X139.204 Y77.291 E74.09157
G1 X139.735 Y76.919 E74.1686
G1 X140.303 Y76.657 E74.24291
G1 X140.888 Y76.501 E74.31484
G1 X141.512 Y76.45 E74.38921
G1 X142.129 Y76.505 E74.4628
G1 X142.73 Y76.669 E74.53681
G1 X143.265 Y76.919 E74.60697
G1 X143.796 Y77.291 E74.68399
G1 X144.209 Y77.704 E74.75338
G1 X144.581 Y78.235 E74.8304
G1 X144.843 Y78.803 E74.90471
G1 X144.999 Y79.388 E74.97664
G1 X145.05 Y80.012 E75.05102
G1 X144.999 Y80.612 E75.12255
G1 X144.831 Y81.23 E75.19864
G1 X144.573 Y81.781 E75.27092
G1 X144.221 Y82.283 E75.34375
G1 X143.783 Y82.722 E75.41743
G1 X143.265 Y83.081 E75.4923
G1 X142.708 Y83.34 E75.56527
G1 X142.095 Y83.501 E75.64057
G1 X141.488 Y83.55 E75.71292
G1 X140.904 Y83.501 E75.78254
G0 F9000 X140.711 Y83.451
G10
G0 X140.532 Y84.126
G0 X139.171 Y103.447
G0 X136.688 Y103.895
G0 X134.452 Y104.494
G0 X132.356 Y105.471
G0 X130.459 Y106.795
G0 X128.821 Y108.429
G0 X127.49 Y110.321
G0 X126.513 Y112.399
G0 X125.902 Y114.649
G0 X125.692 Y116.952
G0 X125.886 Y119.256
G0 X126.476 Y121.498
G0 X127.443 Y123.595
G0 X128.76 Y125.498
G0 X130.386 Y127.143
G0 X132.25 Y128.467
G0 X133.202 Y128.939
G0 X133.201 Y156.06
G0 X132.234 Y156.542
G0 X130.372 Y157.87
G0 X128.744 Y159.521
G0 X127.432 Y161.422
G0 X126.469 Y163.523
G0 X125.882 Y165.762
G0 X125.692 Y168.066
G0 X125.902 Y170.351
G0 X126.513 Y172.601
G0 X127.499 Y174.695
G0 X128.832 Y176.585
G0 X130.296 Y178.043
G0 X132.274 Y179.544
G0 X132.673 Y178.972
G11
G1 F2400 X130.887 Y177.727 E76.04118
G1 X129.303 Y176.149 E76.3068
G1 X128.043 Y174.354 E76.56734
G1 X127.126 Y172.403 E76.82344
G1 X126.533 Y170.237 E77.09023
G1 X126.335 Y168.077 E77.34792
G1 X126.513 Y165.881 E77.60966
G1 X127.072 Y163.742 E77.87231
G1 X128 Y161.722 E78.13639
G1 X129.246 Y159.921 E78.39657
G1 X130.772 Y158.372 E78.65489
G1 X132.579 Y157.082 E78.91865
G1 X133.835 Y156.449 E79.08574
G1 X133.835 Y128.55 E82.40014
G1 X132.579 Y127.917 E82.56723
G1 X130.793 Y126.646 E82.82765
G1 X129.25 Y125.083 E83.08857
G1 X128.008 Y123.29 E83.3477
G1 X127.069 Y121.25 E83.61449
G1 X126.513 Y119.119 E83.87613
G1 X126.335 Y116.933 E84.13668
G1 X126.538 Y114.74 E84.39833
G1 X127.123 Y112.601 E84.66177
G1 X128.034 Y110.661 E84.91639
G1 X129.311 Y108.841 E85.18052
G1 X130.888 Y107.272 E85.4448
G1 X132.704 Y106.011 E85.70745
G1 X134.673 Y105.096 E85.96539
G1 X136.812 Y104.524 E86.22843
G1 X139.014 Y104.335 E86.49099
G1 X141.19 Y104.524 E86.75047
G1 X143.312 Y105.09 E87.01138
G1 X145.31 Y106.017 E87.27305
G1 X147.126 Y107.283 E87.53604
G1 X148.697 Y108.851 E87.79973
G1 X149.93 Y110.606 E88.05453
G1 X150.897 Y112.653 E88.32349
G1 X151.469 Y114.776 E88.58469
G1 X151.666 Y116.943 E88.84319
G1 X151.485 Y119.137 E89.10473
G1 X150.928 Y121.259 E89.36536
G1 X149.999 Y123.28 E89.62961
G1 X148.749 Y125.084 E89.89034
G1 X147.179 Y126.67 E90.15546
G1 X145.386 Y127.942 E90.41663
G1 X144.165 Y128.56 E90.57921
G1 X144.166 Y156.442 E93.89159
G1 X145.43 Y157.087 E94.06017
G1 X147.179 Y158.33 E94.31508
G1 X148.749 Y159.915 E94.58012
G1 X149.998 Y161.719 E94.84079
G1 X150.928 Y163.741 E95.10519
G1 X151.487 Y165.88 E95.36784
G1 X151.666 Y168.047 E95.62615
G1 X151.467 Y170.24 E95.88775
G1 X150.885 Y172.38 E96.15122
G1 X149.953 Y174.364 E96.41163
G1 X148.676 Y176.174 E96.67479
G1 X147.114 Y177.726 E96.93638
G1 X145.327 Y178.972 E97.19518
G1 X143.304 Y179.912 E97.46019
G1 X141.19 Y180.476 E97.72012
G1 X138.988 Y180.665 E97.98268
G1 X136.828 Y180.478 E98.24025
G1 X134.697 Y179.912 E98.50219
G1 X132.673 Y178.972 E98.76731
G0 F9000 X132.509 Y178.858
G10
G0 X132.11 Y179.43
G0 X134.371 Y180.734
G0 X136.567 Y181.371
G0 X124.91 Y182.002
G0 X124.787 Y182.7
G11
G1 F2400 X153.184 Y182.7 E102.14087
G1 X153.786 Y182.505 E102.21605
G1 X154.374 Y181.995 E102.30852
G1 X154.616 Y181.521 E102.37174
G1 X154.7 Y181.173 E102.41427
G1 X154.709 Y103.657 E111.62317
G1 X155.013 Y102.841 E111.72662
G1 X155.536 Y102.226 E111.82253
G1 X156.21 Y101.839 E111.91486
G1 X156.688 Y101.709 E111.97371
G1 X158.193 Y101.7 E112.15251
G1 X158.565 Y101.601 E112.19824
G1 X159.089 Y101.299 E112.27009
G1 X159.468 Y100.849 E112.33998
G1 X159.7 Y100.213 E112.42041
G1 X159.7 Y41.789 E119.36118
G1 X159.47 Y41.154 E119.44142
G1 X159.092 Y40.703 E119.51133
G1 X158.564 Y40.399 E119.58371
G1 X158.202 Y40.3 E119.62829
G1 X64.789 Y40.3 E130.72576
G1 X64.154 Y40.53 E130.80599
G1 X63.703 Y40.908 E130.8759
G1 X63.399 Y41.436 E130.94828
G1 X63.3 Y41.797 E130.99275
G1 X63.3 Y100.193 E137.93019
G1 X63.399 Y100.565 E137.97593
G1 X63.701 Y101.089 E138.04778
G1 X64.151 Y101.468 E138.11767
G1 X64.787 Y101.7 E138.1981
G1 X98.126 Y101.703 E142.15877
G1 X123.3 Y126.876 E146.38813
G1 X123.3 Y181.193 E152.84099
G1 X123.399 Y181.565 E152.88673
G1 X123.701 Y182.089 E152.95858
G1 X124.151 Y182.468 E153.02847
G1 X124.787 Y182.7 E153.1089
G0 F9000 X124.987 Y182.7
G0 X124.857 Y182.3
;TYPE:WALL-INNER
G1 F2400 X153.121 Y182.3 E156.00878
G1 X153.618 Y182.139 E156.06238
G1 X154.046 Y181.756 E156.12131
G1 X154.3 Y181.125 E156.1911
G1 X154.306 Y103.604 E164.14476
G1 X154.659 Y102.638 E164.25028
G1 X155.273 Y101.915 E164.3476
G1 X156.053 Y101.471 E164.43968
G1 X156.738 Y101.303 E164.51205
G1 X158.141 Y101.3 E164.65599
G1 X158.411 Y101.228 E164.68466
G1 X158.828 Y100.987 E164.73408
G1 X159.116 Y100.645 E164.77995
G1 X159.3 Y100.143 E164.83481
G1 X159.3 Y41.859 E170.81475
G1 X159.118 Y41.357 E170.86953
G1 X158.831 Y41.014 E170.91542
G1 X158.409 Y40.771 E170.96538
G1 X158.148 Y40.7 E170.99313
G1 X64.859 Y40.7 E180.56459
G1 X64.357 Y40.882 E180.61937
G1 X64.014 Y41.169 E180.66526
G1 X63.771 Y41.591 E180.71522
G1 X63.7 Y41.851 E180.74287
G1 X63.7 Y100.141 E186.72343
G1 X63.772 Y100.411 E186.7521
G1 X64.013 Y100.828 E186.80151
G1 X64.355 Y101.116 E186.84739
G1 X64.857 Y101.3 E186.90224
G1 X98.113 Y101.3 E190.31431
G1 X98.419 Y101.429 E190.34838
G1 X123.631 Y126.641 E194.0066
G1 X123.7 Y126.95 E194.03908
G1 X123.7 Y181.141 E199.59908
G1 X123.772 Y181.411 E199.62775
G1 X124.013 Y181.828 E199.67716
G1 X124.355 Y182.116 E199.72304
G1 X124.857 Y182.3 E199.77789
G10
G0 F9000 X124.91 Y182.002
G0 X124.181 Y181.089
G0 X123.536 Y126.777
G0 X99.225 Y102.492
G0 X98.754 Y101.03
G0 X92.792 Y69.701
G0 X92.791 Y69.6
G11
G1 F2400 X70.084 Y69.594 E202.10763
G1 X69.82 Y69.526 E202.1356
G1 X69.408 Y69.213 E202.18869
G1 X69.15 Y68.673 E202.25009
G1 X69.15 Y61.882 E202.94685
G1 X69.266 Y61.58 E202.98004
G1 X69.547 Y61.251 E203.02443
G1 X69.811 Y61.102 E203.05553
G1 X70.252 Y61 E203.10198
G1 X70.9 Y61 E203.16846
G1 X70.9 Y46.93 E204.61204
G1 X71.023 Y46.568 E204.65127
G1 X71.274 Y46.269 E204.69132
G1 X71.826 Y46 E204.75432
G1 X91.219 Y46 E206.74405
G1 X91.52 Y46.117 E206.77718
G1 X91.849 Y46.398 E206.82157
G1 X92.1 Y47.005 E206.88896
G1 X92.1 Y61 E208.32485
G1 X92.8 Y61 E208.39667
G1 X93.149 Y61.062 E208.43304
G1 X93.568 Y61.358 E208.48567
G1 X93.77 Y61.709 E208.52722
G1 X93.85 Y62.058 E208.56396
G1 X93.85 Y68.591 E209.23425
G1 X93.802 Y68.859 E209.26218
G1 X93.585 Y69.229 E209.30619
G1 X93.081 Y69.544 E209.36717
G1 X92.791 Y69.6 E209.39747
G10
G0 F9000 X82.336 Y69.7
G0 X81.754 Y75.575
G0 X83.587 Y76.364
G0 X84.706 Y77.298
G0 X85.436 Y78.556
G0 X85.693 Y79.989
G0 X85.443 Y81.424
G0 X84.706 Y82.701
G0 X83.864 Y83.444
G0 X82.336 Y84.268
G11
G1 F2400 X81.505 Y84.35 E209.48315
G1 X80.75 Y84.287 E209.56088
G1 X80.012 Y84.089 E209.63928
G1 X79.396 Y83.806 E209.70883
G1 X78.704 Y83.335 E209.79471
G1 X78.225 Y82.862 E209.86378
G1 X77.735 Y82.182 E209.94978
G1 X77.411 Y81.488 E210.02836
G1 X77.213 Y80.75 E210.10675
G1 X77.153 Y79.921 E210.19203
G1 X77.213 Y79.25 E210.26115
G1 X77.4 Y78.543 E210.33618
G1 X77.781 Y77.746 E210.42682
G1 X78.225 Y77.138 E210.50406
G1 X78.772 Y76.613 E210.58185
G1 X79.396 Y76.194 E210.65897
G1 X80.096 Y75.884 E210.73752
G1 X80.75 Y75.713 E210.80687
G1 X81.409 Y75.653 E210.87477
G1 X82.161 Y75.702 E210.95208
G1 X82.904 Y75.884 E211.03057
G1 X83.604 Y76.194 E211.10912
G1 X84.228 Y76.613 E211.18623
G1 X84.775 Y77.138 E211.26402
G1 X85.219 Y77.746 E211.34127
G1 X85.556 Y78.431 E211.41959
G1 X85.788 Y79.257 E211.50762
G1 X85.85 Y80.032 E211.58739
G1 X85.792 Y80.719 E211.65813
G1 X85.561 Y81.558 E211.74741
G1 X85.219 Y82.254 E211.82698
G1 X84.853 Y82.773 E211.89213
G1 X84.298 Y83.334 E211.9731
G1 X83.681 Y83.765 E212.05032
G1 X82.988 Y84.089 E212.12881
G1 X82.336 Y84.268 E212.19818
G10
G0 F9000 X84.891 Y82.885
G0 X129.58 Y69.51
G0 X130.038 Y69.6
G11
G1 F2400 X129.634 Y69.426 E212.24331
G1 X129.437 Y69.248 E212.27055
G1 X129.237 Y68.909 E212.31093
G1 X129.15 Y68.542 E212.34963
G1 X129.15 Y61.897 E213.03141
G1 X129.298 Y61.525 E213.07249
G1 X129.524 Y61.27 E213.10745
G1 X129.811 Y61.102 E213.14157
G1 X130.252 Y61 E213.18801
G1 X130.9 Y61 E213.25449
G1 X130.906 Y46.934 E214.69766
G1 X130.974 Y46.67 E214.72563
G1 X131.15 Y46.388 E214.75974
G1 X131.459 Y46.151 E214.79969
G1 X131.838 Y46 E214.84155
G1 X151.232 Y46 E216.83138
G1 X151.689 Y46.23 E216.88387
G1 X151.934 Y46.531 E216.92369
G1 X152.1 Y46.995 E216.97425
G1 X152.1 Y61 E218.41116
G1 X152.8 Y61 E218.48298
G1 X153.197 Y61.081 E218.52455
G1 X153.571 Y61.361 E218.57249
G1 X153.85 Y61.925 E218.63705
G1 X153.85 Y68.718 E219.33401
G1 X153.734 Y69.02 E219.3672
G1 X153.452 Y69.349 E219.41166
G1 X152.845 Y69.6 E219.47905
G1 X130.038 Y69.6 E221.81905
G10
G0 F9000 X130.039 Y69.594
G0 X140.745 Y69.7
G0 X141.234 Y75.553
G0 X140.833 Y76.268
G0 X139.596 Y76.722
G0 X138.601 Y77.557
G0 X137.934 Y78.713
G0 X137.708 Y80.01
G0 X137.941 Y81.305
G0 X138.602 Y82.443
G0 X140.745 Y84.286
G11
G1 F2400 X140.025 Y84.094 E221.8955
G1 X139.396 Y83.806 E221.96648
G1 X138.732 Y83.357 E222.04872
G1 X138.186 Y82.82 E222.1273
